X: 8
T: Larry O'Gaff's
Z: Fernando Durbán Galnares
S: https://thesession.org/tunes/498#setting39207
R: jig
M: 6/8
L: 1/8
K: Gmaj
|:"G"g2G BAG|"G"ded dBG|"C"cec "G"BdB|"Am"ABc "D7"def|
"G"g2G BAG|"G"ded dBG|"C"cec "G"BdB|1 "D7"ABA "G"G2d:|2 "D7"ABA "G"G3||
|:"D7"def "G"gfg|"D7"aba afe|"D7"dfg aga|"G"bgf g2d|
"D"def "C"gfe|"G"ded dBG|"C"cec "G"BdB|1 "D7"ABA "G"G2d:|2 "Am"ABc "D7"def||

